X: 4487
T: Bonny Baylor, The
R: waltz
M: 3/4
K: Dmajor
Ade|f3ecd|e2ABAG|F2EDFG|A4de|f2edef|
g2BdcA|G2 gAce|f3AdA|F2fedc|B2dABG|g2efed|
d2c2A2|dAFA dc|BGEG Bd|ecAF GA|D4||

